!!!Genre:	Volekh
!!!Mode:	Major
!!!Listening/dance:	dance
!!!:	*g:dor
!!!One_Mode:	no
**kern
*I"P1
*clefG2
*k[f#]
*G:
*M3/4
*>A
4d
=1!|:
8gL
8aJ
8bL
(8qdd/
8ccJ)
8bL
8aJ
=2
2g
8aL
8gJ
=3
(8qcc#X/
4dd)
(8qcc#/
4dd)
12ccnL
12b
12aJ
=4
2b
8aL
8gJ
=5
8gL
8aJ
8bL
(8qdd/
8ccJ)
8bL
8aJ
=6
2b
8aL
8gJ
=7
4a
4a
(16gLL
16f#
16e
16f#JJ)
=8
2.g
=9:|!
2g
4r
=10!|:
*>B
8ggL
8ff#J
8ggL
8ff#J
12ggL
12ff#
12eeJ
=11
2dd
4b
=12
(8qdd/
8ccL)
8aJ
8ddL
8ccJ
8bL
8aJ
=13
2b
4g
=14
8ggL
8ff#J
8ggL
8ff#J
12ggL
12ff#
12eeJ
=15
2dd
4b
=16
8ccL
8aJ
8ddL
8ccJ
8bL
8aJ
=17
2.g
*>bM
*g:dor
=18:|!|:
*>C
8ddL
8cc#X
(8qee/
8dd)
8cc#J
12ddL
12cc#
12b-XJ
=19
8cc#XL
8dd
8ee
(8qgg/
8ffnJ)
4dd
=20
8ddL
8cc#X
8dd
8cc#J
12ddL
12cc#
12b-XJ
=21
8ddL
8cc#X
8b-X
8aJ
4g
=22
8ddL
8cc#X
8dd
8cc#J
(8qee/
12ddL)
12cc#
12b-XJ
=23
8cc#XL
8dd
8eeJ
(8qgg/
8ffnJ)
4dd
=24
(8qcc#X/
2.dd)
=25
(8qff#/
2.gg)
*>eM
=:|!
*-
